icons/folder_type_private.svg

<svg xmlns="http://www.w3.org/2000/svg" viewBox="0 0 32 32"><path d="M27.5 5.5h-9.3l-2.1 4.2H4.4v16.8h25.2v-21Zm0 4.2h-8.2l1.1-2.1h7.1Z" style="fill:#913e4e"/><path d="M20.4 10a10.5 10.5 0 1 0 10.5 10.5A10.5 10.5 0 0 0 20.4 10Zm0 18.4A7.8 7.8 0 0 1 14 16l11 11a8.555 8.555 0 0 1-4.6 1.4Zm6.4-3.3-11-11a7.964 7.964 0 0 1 11 1.8 7.8 7.8 0 0 1 0 9.2Z" style="fill:#d80027"/></svg>

<svg xmlns="http://www.w3.org/2000/svg" viewBox="0 0 32 32"><title>folder_type_private</title><path d="M27.5,5.5H18.2L16.1,9.7H4.4V26.5H29.6V5.5Zm0,4.2H19.3l1.1-2.1h7.1Z" style="fill:#913e4e"/><path d="M20.4,10A10.5,10.5,0,1,0,30.9,20.5,10.5,10.5,0,0,0,20.4,10Zm0,18.4A7.8,7.8,0,0,1,14,16L25,27A8.555,8.555,0,0,1,20.4,28.4Zm6.4-3.3-11-11a7.964,7.964,0,0,1,11,1.8A7.8,7.8,0,0,1,26.8,25.1Z" style="fill:#d80027"/></svg>
